X:1
T:Triune Adoration, CM
T:Triune Adoration, CM
T:Scott Werdebaugh, 2017
T:© 2017 Scott Werdebaugh. Reproduce or publish freely for Christian worship or devotions. Courtesy of the Cyber Hymnal™
C:Scott Werdebaugh, 2017
Z:© 2017 Scott Werdebaugh. Reproduce or publish freely for Christian worship or devotions.
Z:Courtesy of the Cyber Hymnal™
%%score 1 2
L:1/8
Q:1/4=107
M:4/4
K:C
V:1 treble 
V:2 bass 
V:1
 [EG]2 | [Ec]2 [DB]2 [Ec]2 [CA]2 | [DG]2 [DF]2 [CE]2 [EG]2 | [DF]2 [CE]2 [B,D]2 [G,C]2 | %4
 [DG]4 z2 [FG]2 | [Ec]2 [DB]2 [Ec]2 [CA]2 | [DG]2 [DF]2 [CE]2 [EG]2 | [CF]2 [CE]2 [B,E]3 [B,D] | %8
 [G,C]4 z2 |] %9
V:2
 [C,G,]2 | [C,G,]2 [G,,G,]2 [C,G,]2 [F,A,]2 | [G,B,]2 [G,B,]2 [C,G,]2 [C,C]2 | %3
 [G,B,]2 [C,G,]2 [G,,G,]2 [C,E,]2 | [G,B,]4 z2 [G,,D,]2 | [C,G,]2 [G,,G,]2 [C,G,]2 [F,A,]2 | %6
 [G,B,]2 [G,B,]2 [C,G,]2 [C,C]2 | [F,A,]2 [C,G,]2 [G,,G,]3 [G,,F,] | [C,E,]4 z2 |] %9

